; generated by BambuStudio 1.8.4
; filament_type = PLA
; layer_height = 0.2
; first_layer_height = 0.2
; nozzle_temperature = 220
; bed_temperature = 55
; nozzle_diameter = 0.4
; total estimated time: 5400
; filament used [mm] = 5100.0
; filament used [g] = 15.3

M104 S220 ; set hotend temp
M140 S55 ; set bed temp
M190 S55 ; wait for bed temp
M109 S220 ; wait for hotend temp
G28 ; home all axes
G1 Z5 F3000 ; lift nozzle

; CHANGE_LAYER
; Z_HEIGHT: 0.2
G1 Z0.2 F7200
M106 S127 ; fan 50%
G1 X10.0 Y10.0 F9000 ; travel
G1 X110.0 Y10.0 E3.0 F2400 ; outer wall
G1 X110.0 Y95.0 E5.8 F2400
G1 X10.0 Y95.0 E8.6 F2400
G1 X10.0 Y10.0 E11.4 F2400
G1 E-1.0 F2700 ; retract
G0 X55.0 Y45.0 F8000 ; travel
G1 E1.0 F2700 ; unretract
G1 X75.0 Y45.0 E12.2 F1500 ; infill
G1 X75.0 Y65.0 E13.0 F1500

; CHANGE_LAYER
; Z_HEIGHT: 0.4
G1 Z0.4 F7200
M106 S255 ; fan 100%
G1 X10.0 Y10.0 F9000
G1 X110.0 Y10.0 E16.0 F2400
G1 X110.0 Y95.0 E18.8 F2400
G1 X10.0 Y95.0 E21.6 F2400
G1 X10.0 Y10.0 E24.4 F2400
G1 E-1.0 F2700 ; retract
G0 X55.0 Y45.0 F8000
G1 E1.0 F2700 ; unretract
G1 X75.0 Y45.0 E25.2 F1500
G1 X75.0 Y65.0 E26.0 F1500

M107 ; fan off
M104 S0 ; hotend off
M140 S0 ; bed off
G28 X Y ; home X Y
M84 ; disable motors
