; generated by OrcaSlicer 2.0.0
; filament_type = PLA
; layer_height = 0.2
; first_layer_height = 0.2
; nozzle_temperature = 215
; bed_temperature = 60
; nozzle_diameter = 0.4
; total estimated time: 5280
; filament used [mm] = 5250.5
; filament used [g] = 15.7

M104 S215 ; set hotend temp
M140 S60 ; set bed temp
M190 S60 ; wait for bed temp
M109 S215 ; wait for hotend temp
G28 ; home all axes
G1 Z5 F3000 ; lift nozzle

; CHANGE_LAYER
; Z_HEIGHT: 0.2
G1 Z0.2 F7200
M106 S127 ; fan 50%
G1 X8.0 Y8.0 F9000 ; travel
G1 X115.0 Y8.0 E3.2 F2100 ; outer wall
G1 X115.0 Y98.0 E6.2 F2100
G1 X8.0 Y98.0 E9.2 F2100
G1 X8.0 Y8.0 E12.2 F2100
G1 E-1.0 F2700 ; retract
G0 X58.0 Y48.0 F8500 ; travel
G1 E1.0 F2700 ; unretract
G1 X78.0 Y48.0 E13.0 F1500 ; infill
G1 X78.0 Y68.0 E13.8 F1500

; CHANGE_LAYER
; Z_HEIGHT: 0.4
G1 Z0.4 F7200
M106 S255 ; fan 100%
G1 X8.0 Y8.0 F9000
G1 X115.0 Y8.0 E16.8 F2100
G1 X115.0 Y98.0 E19.8 F2100
G1 X8.0 Y98.0 E22.8 F2100
G1 X8.0 Y8.0 E25.8 F2100
G1 E-1.0 F2700 ; retract
G0 X58.0 Y48.0 F8500
G1 E1.0 F2700 ; unretract
G1 X78.0 Y48.0 E26.6 F1500
G1 X78.0 Y68.0 E27.4 F1500

M107 ; fan off
M104 S0 ; hotend off
M140 S0 ; bed off
G28 X Y ; home X Y
M84 ; disable motors
