; generated by PrusaSlicer 2.7.1
; filament_type = PLA
; layer_height = 0.2
; first_layer_height = 0.2
; nozzle_temperature = 215
; bed_temperature = 60
; nozzle_diameter = 0.4
; estimated printing time (normal mode) = 1h 30m 0s
; filament used [mm] = 5432.1
; filament used [g] = 16.2

M104 S215 ; set hotend temp
M140 S60 ; set bed temp
M190 S60 ; wait for bed temp
M109 S215 ; wait for hotend temp
G28 ; home all axes
G1 Z5 F3000 ; lift nozzle

; LAYER_CHANGE
; Z:0.2
; HEIGHT:0.2
G1 Z0.2 F7200
M106 S127 ; fan 50%
G1 X5.0 Y5.0 F9000 ; travel to start
G1 X120.0 Y5.0 E3.5 F1800 ; perimeter
G1 X120.0 Y100.0 E6.8 F1800
G1 X5.0 Y100.0 E10.1 F1800
G1 X5.0 Y5.0 E13.4 F1800
G1 E-1.0 F2700 ; retract
G0 X60.0 Y50.0 F9000 ; travel
G1 E1.0 F2700 ; unretract
G1 X80.0 Y50.0 E14.2 F1200 ; infill
G1 X80.0 Y70.0 E15.0 F1200

; LAYER_CHANGE
; Z:0.4
; HEIGHT:0.2
G1 Z0.4 F7200
M106 S255 ; fan 100%
G1 X5.0 Y5.0 F9000
G1 X120.0 Y5.0 E18.5 F1800
G1 X120.0 Y100.0 E21.8 F1800
G1 X5.0 Y100.0 E25.1 F1800
G1 X5.0 Y5.0 E28.4 F1800
G1 E-1.0 F2700 ; retract
G0 X60.0 Y50.0 F9000
G1 E1.0 F2700 ; unretract
G1 X80.0 Y50.0 E29.2 F1200
G1 X80.0 Y70.0 E30.0 F1200

M107 ; fan off
M104 S0 ; hotend off
M140 S0 ; bed off
G28 X Y ; home X Y
M84 ; disable motors
